X: 143
T: No_99_Song_During_Which_the_Wearer_of_"Crow"_Dances.krn
N: Derived from No_99_Song_During_Which_the_Wearer_of_"Crow"_Dances.krn
%%abc-version 2.0
%%abcx-abcm2ps-target-version 5.9.1 (29 Sep 2008)
%%abc-creator hum2abc beta
%%abcx-conversion-date 2019/03/15 08:35:45
%%humdrum-veritas 3471510176
%%humdrum-veritas-data 607545257
%%linebreak <none>
%%barnumbers 0
L: 1/8
M: 2/4
K: G clef=bass
[K:clef=bass][M:2/4]B,3B, | 
A,3E,/E,/ | 
E,E, z B,/B,/ | 
B,3B, | 
A,3E,/E,/ | 
E,E, z E,/E,/ | 
A,3F, | 
E,E, E, z | 
(3B,,B,,B,,A,,2 | 
(3A,,A,,A,,E,,2 | 
E,,E,, z E,, | 
(3A,,A,,A,, A,,A,, | 
(3E,,E,,E,, E,,E,, | 
E,,4 | 
E,,4 |]  



